packages/ui/assets/svg/telegram.svg

<svg class="socials-size" width="24" height="20" viewBox="0 0 24 20" fill="none" xmlns="http://www.w3.org/2000/svg">
<path class="fill" fill-rule="evenodd" clip-rule="evenodd" d="M18.3839 19.779C18.7059 20.007 19.1209 20.064 19.4909 19.924C19.8609 19.783 20.1329 19.467 20.2149 19.084C21.0839 15 23.1919 4.66303 23.9829 0.948026C24.0429 0.668026 23.9429 0.377026 23.7229 0.190026C23.5029 0.00302622 23.1979 -0.0509739 22.9259 0.0500261C18.7329 1.60203 5.81991 6.44703 0.54191 8.40003C0.20691 8.52403 -0.0110904 8.84603 -9.04275e-05 9.19903C0.0119096 9.55303 0.24991 9.86003 0.59291 9.96303C2.95991 10.671 6.06691 11.656 6.06691 11.656C6.06691 11.656 7.51891 16.041 8.27591 18.271C8.37091 18.551 8.58991 18.771 8.87891 18.847C9.16691 18.922 9.47491 18.843 9.68991 18.64C10.9059 17.492 12.7859 15.717 12.7859 15.717C12.7859 15.717 16.3579 18.336 18.3839 19.779ZM7.37391 11.102L9.05291 16.64L9.42591 13.133C9.42591 13.133 15.9129 7.28203 19.6109 3.94703C19.7189 3.84903 19.7339 3.68503 19.6439 3.57003C19.5549 3.45503 19.3909 3.42803 19.2679 3.50603C14.9819 6.24303 7.37391 11.102 7.37391 11.102Z" fill="#112338"/>
</svg>

<svg class="socials-size" width="24" height="20" viewBox="0 0 24 20" fill="none" xmlns="http://www.w3.org/2000/svg"><path class="fill" fill-rule="evenodd" clip-rule="evenodd" d="M18.384 19.779a1.19 1.19 0 0 0 1.107.145 1.16 1.16 0 0 0 .724-.84C21.084 15 23.192 4.663 23.983.948a.78.78 0 0 0-.26-.758.8.8 0 0 0-.797-.14C18.733 1.602 5.82 6.447.542 8.4A.827.827 0 0 0 0 9.199c.012.354.25.661.593.764 2.367.708 5.474 1.693 5.474 1.693s1.452 4.385 2.209 6.615c.095.28.314.5.603.576a.866.866 0 0 0 .81-.207l3.097-2.923s3.572 2.619 5.598 4.062Zm-11.01-8.677 1.679 5.538.373-3.507L19.61 3.947a.277.277 0 0 0 .033-.377.284.284 0 0 0-.376-.064L7.374 11.102Z" fill="#112338"/></svg>
